!!!SOCIAL_FUNCTION:	miscellaneous songs
!!!PDT:	1922
!!!OTL: No_108_Serenade.krn
!!!REG: Southwest
!!!LANG: Non-Tone
!!!LING_GROUP: Uto-Aztecan
**kern	**kern
*staff2	*staff1
=1-	=1-
*clefF4	*clefF4
*k[b-e-a-d-]	*k[b-e-a-d-]
*M2/4	*M2/4
12GG^/L	8e-\L
12GG/J	.
.	16f\L
12r	.
.	16e-\JJ
12GG^/L	16f\LL
.	16e-\J
12GG/J	.
.	8f\J
12r	.
=2	=2
12GG^/L	8.e-\L
12GG/J	.
12r	.
.	16c\Jk
12GG^/L	8B-\
12GG/J	.
.	32c\LLL
.	32B-\
12r	.
.	32A-\
.	32F\JJJ
=3	=3
2r	16E-\LK
.	8.E-\J
.	16E-\LK
.	8.E-\J
=4	=4
2r	8B-\L
.	24A-\K
.	12F\J
.	16A-\LL
.	16A-\J
.	8F\J
=5||	=5||
*M3/4	*M3/4
2.r	16E-\LK
.	8.E-\J
.	4.E-\
.	8E-\
=6	=6
2.r	4E-\
.	2E-\
=7||	=7||
*M2/4	*M2/4
2r	4A-\
.	8A-\L
.	16.c\L
.	32B-\JJk
=8	=8
2r	4A-\
.	8A-\L
.	16B-\L
.	16F\JJ
=9	=9
2r	4E-\
.	32E-\LLK
.	16.E-\
.	16A-\
.	16F\JJ
=10||	=10||
*M3/4	*M3/4
2.r	4E-\
.	16E-\LK
.	8.E-\J
.	4E-\
=11||	=11||
*M2/4	*M2/4
2r	16.c\LL
.	32B-\JK
.	8A-\J
.	32A-\LLK
.	16.A-\
.	16B-\
.	16F\JJ
=12	=12
2r	16E-\LK
.	8.E-\J
.	8E-\L
.	16A-\L
.	16F\JJ
=13	=13
2r	16E-\LK
.	8.E-\J
.	8E-\L
.	8E-\J
=14||	=14||
*M3/4	*M3/4
2.r	4E-\
.	2E-\
==	==
*-	*-
